app/assets/images/birdIcon.svg

<?xml version="1.0" encoding="iso-8859-1"?>
<!-- Generator: Adobe Illustrator 19.0.0, SVG Export Plug-In . SVG Version: 6.00 Build 0)  -->
<svg version="1.1" id="Layer_1" xmlns="http://www.w3.org/2000/svg" xmlns:xlink="http://www.w3.org/1999/xlink" x="0px" y="0px"
	 viewBox="0 0 511.999 511.999" style="enable-background:new 0 0 511.999 511.999;" xml:space="preserve">
<path style="fill:#ED2601;" d="M147.812,358.682L10.363,475.36c-3.851,3.269-1.539,9.565,3.512,9.565l0,0
	c83.708,0,160.862-45.301,201.652-118.398l8.684-15.564L147.812,358.682z"/>
<path style="fill:#C91C00;" d="M196.359,353.776c-37.416,63.97-103.054,105.77-176.057,113.146l-9.939,8.437
	c-3.851,3.269-1.539,9.565,3.512,9.565l0,0c83.708,0,160.862-45.301,201.652-118.398l8.684-15.564L196.359,353.776z"/>
<path style="fill:#ED2601;" d="M504.402,104.656L443.23,69.242c3.836,7.819,6.377,16.436,7.304,25.608
	c1.081,10.706-0.139,21.112-3.254,30.731C466.066,119.153,504.402,104.656,504.402,104.656z"/>
<path style="fill:#FDEA96;" d="M450.533,94.851c-4.183-41.402-41.137-71.573-82.538-67.39c-37.281,3.767-65.442,34.109-67.628,70.34
	c4.391,7.652,8.332,15.432,11.829,23.297c-0.001,0-0.01-0.003-0.01-0.003c1.435,3.223,2.794,6.458,4.078,9.706
	c0.03,0.077,0.062,0.153,0.092,0.23c0.592,1.503,1.167,3.01,1.728,4.518c0.153,0.41,0.301,0.823,0.45,1.234
	c0.036,0.1,0.073,0.201,0.109,0.301c0.735,2.023,1.444,4.048,2.12,6.077c0.046,0.139,0.091,0.278,0.137,0.416
	c0.792,2.396,1.547,4.795,2.257,7.197c0.016,0.053,0.031,0.108,0.047,0.162c0.748,2.538,1.452,5.078,2.108,7.621
	c0.015,0.014,0.031,0.026,0.047,0.04c9.332,35.809,10.026,73.679-1.986,108.723c-6.064,18.295-15.276,35.474-27.83,50.85
	c-27.143,33.244-65.615,52.97-108.48,59.229c242.956,51.278,238.68-177.245,236.179-216.633
	C442.135,145.297,453.172,120.963,450.533,94.851z"/>
<path style="fill:#E8D37C;" d="M450.533,94.851c-4.183-41.402-41.137-71.573-82.538-67.39c-1.729,0.174-3.43,0.425-5.117,0.712
	c32.537,5.581,58.708,32.232,62.189,66.678c2.638,26.113-8.398,50.446-27.29,65.914c2.196,34.594,5.753,215.083-158.026,223.758
	c189.611,9.494,185.798-187.458,183.494-223.758C442.135,145.297,453.172,120.963,450.533,94.851z"/>
<path style="fill:#FDBF00;" d="M80.304,366.883c81.534,27.088,166.584,10.878,215.241-48.715s47.526-146.166,4.676-220.635
	L80.304,366.883z"/>
<path style="fill:#EFB000;" d="M300.22,97.535l-5.859,7.177c29.311,67.896,25.242,141.741-17.808,194.468
	s-114.588,71.484-186.975,56.347l-9.274,11.359c81.534,27.088,166.584,10.878,215.24-48.715
	C344.201,258.575,343.069,172.002,300.22,97.535z"/>
<g>
	<circle style="fill:#333333;" cx="401.536" cy="80.378" r="10.233"/>
	<circle style="fill:#333333;" cx="401.483" cy="80.378" r="10.233"/>
</g>
<path d="M508.002,97.72l-59.175-34.257c-15.419-29.063-47.36-47.484-82.052-43.976c-19.81,2.001-38.269,11.038-51.976,25.446
	c-12.822,13.477-20.765,30.854-22.585,49.228L73.68,361.815c-1.667,2.042-2.224,4.772-1.489,7.304
	c0.735,2.531,2.668,4.539,5.17,5.371c9.842,3.27,19.729,5.933,29.623,7.985l-20.708,17.58c-3.375,2.865-3.788,7.922-0.923,11.296
	c2.865,3.375,7.922,3.789,11.296,0.923l31.102-26.402c3.414,0.411,6.825,0.748,10.232,1.013c1.094,0.087,2.186,0.169,3.277,0.24
	c0.22,0.014,0.44,0.026,0.66,0.038c13.912,0.868,27.542,0.494,40.816-1.127c0.98-0.118,1.953-0.248,2.928-0.379
	c0.285-0.038,0.572-0.076,0.857-0.115c2,0.415,3.99,0.812,5.969,1.19c-40.285,54.203-103.894,87.836-171.844,90.06l56.005-47.542
	c3.375-2.865,3.788-7.922,0.923-11.296c-2.864-3.375-7.92-3.787-11.296-0.923L4.762,469.25c-4.345,3.689-5.885,9.529-3.92,14.881
	c1.965,5.35,6.918,8.808,12.619,8.808c41.391,0,82.28-10.828,118.243-31.314c31.215-17.78,58.057-42.465,78.405-71.939
	c14.742,2.101,28.824,3.165,42.211,3.165c6.95,0,13.712-0.289,20.291-0.855v42.519l-28.405,20.223
	c-3.606,2.567-4.447,7.571-1.881,11.177c2.566,3.604,7.572,4.448,11.176,1.881l24.778-17.64l11.07,18.062
	c1.512,2.467,4.145,3.828,6.84,3.828c1.429,0,2.873-0.382,4.18-1.182c3.774-2.313,4.958-7.247,2.646-11.021l-4.552-7.427
	l19.113,5.781l12.394,17.979c1.555,2.255,4.058,3.466,6.606,3.466c1.569,0,3.152-0.459,4.541-1.417
	c3.644-2.512,4.563-7.502,2.05-11.147l-13.986-20.289c-1.031-1.495-2.539-2.597-4.279-3.122l-26.1-7.895l23.333-16.612l11.07,18.062
	c1.512,2.467,4.145,3.828,6.84,3.828c1.429,0,2.873-0.381,4.18-1.182c3.774-2.313,4.958-7.247,2.646-11.021l-4.552-7.427
	l19.113,5.781l12.394,17.979c1.555,2.255,4.058,3.466,6.606,3.466c1.569,0,3.152-0.46,4.541-1.417
	c3.644-2.512,4.563-7.502,2.05-11.147l-13.986-20.289c-1.031-1.495-2.539-2.597-4.279-3.122l-36.265-10.969v-24.95
	c9.021-4.188,17.481-9.191,25.366-15.009c51.666-38.119,67.716-102.874,72.085-150.485c0.404-4.408-2.841-8.308-7.248-8.713
	c-4.419-0.407-8.308,2.841-8.713,7.249c-4.068,44.343-18.758,104.462-65.639,139.052c-30.57,22.555-71.268,31.499-121.332,26.731
	c9.183-3.35,17.972-7.378,26.313-12.066c0.067-0.037,0.134-0.076,0.2-0.114c1.482-0.836,2.95-1.693,4.405-2.57
	c0.3-0.181,0.598-0.362,0.897-0.545c1.226-0.75,2.441-1.515,3.645-2.294c0.4-0.259,0.8-0.515,1.197-0.776
	c1.119-0.737,2.225-1.491,3.324-2.253c0.42-0.291,0.845-0.577,1.262-0.872c1.172-0.829,2.331-1.678,3.481-2.536
	c0.306-0.228,0.619-0.448,0.923-0.679c1.401-1.06,2.784-2.142,4.15-3.245c0.513-0.415,1.014-0.844,1.523-1.264
	c0.86-0.712,1.72-1.423,2.567-2.152c0.597-0.515,1.185-1.042,1.775-1.564c0.746-0.661,1.491-1.325,2.225-1.999
	c0.599-0.551,1.193-1.109,1.785-1.669c0.718-0.68,1.432-1.366,2.139-2.059c0.572-0.561,1.141-1.124,1.705-1.694
	c0.727-0.734,1.445-1.478,2.16-2.226c0.521-0.546,1.044-1.089,1.558-1.642c0.788-0.847,1.56-1.71,2.332-2.575
	c0.423-0.474,0.853-0.941,1.271-1.422c1.147-1.315,2.276-2.649,3.384-4.004c0.033-0.04,0.067-0.078,0.099-0.118
	c0.129-0.158,0.253-0.32,0.381-0.479c0.655-0.809,1.306-1.62,1.945-2.438c0.253-0.324,0.497-0.654,0.747-0.979
	c0.513-0.667,1.026-1.334,1.527-2.008c0.246-0.331,0.485-0.667,0.729-0.999c0.498-0.68,0.997-1.36,1.484-2.046
	c0.22-0.31,0.434-0.625,0.652-0.937c0.505-0.722,1.009-1.446,1.502-2.176c0.185-0.275,0.365-0.552,0.549-0.828
	c0.518-0.777,1.033-1.557,1.539-2.342c0.153-0.237,0.301-0.478,0.453-0.716c0.531-0.836,1.058-1.674,1.573-2.52
	c0.116-0.191,0.231-0.384,0.346-0.575c0.547-0.904,1.087-1.811,1.617-2.726c0.08-0.139,0.16-0.279,0.24-0.419
	c0.563-0.979,1.118-1.963,1.661-2.952c0.043-0.078,0.085-0.157,0.128-0.235c0.581-1.063,1.151-2.133,1.71-3.209
	c0.004-0.009,0.01-0.018,0.014-0.027c4.464-8.606,8.191-17.617,11.156-26.973c10.546-32.275,11.475-68.672,2.726-105.747
	c-5.212-22.367-13.895-44.569-25.84-65.851c-0.016-0.028-0.03-0.057-0.046-0.084c3.009-31.995,28.005-57.28,60.255-60.539
	c29.975-3.023,57.421,14.2,68.694,40.546c0.052,0.122,0.099,0.245,0.151,0.368c0.356,0.845,0.696,1.7,1.018,2.563
	c0.089,0.239,0.172,0.48,0.259,0.72c0.271,0.754,0.532,1.515,0.777,2.282c0.096,0.301,0.188,0.604,0.28,0.906
	c0.218,0.718,0.424,1.441,0.62,2.169c0.09,0.336,0.178,0.672,0.264,1.009c0.178,0.712,0.342,1.43,0.498,2.151
	c0.075,0.348,0.155,0.696,0.224,1.045c0.151,0.753,0.281,1.514,0.407,2.278c0.051,0.314,0.111,0.625,0.158,0.94
	c0.16,1.073,0.301,2.153,0.411,3.244c0,0.001,0,0.003,0,0.004c0.104,1.028,0.175,2.055,0.233,3.081
	c0.013,0.238,0.028,0.477,0.038,0.715c0.043,0.94,0.064,1.88,0.068,2.818c0.001,0.331-0.004,0.663-0.009,0.993
	c-0.007,0.706-0.028,1.411-0.058,2.114c-0.022,0.517-0.051,1.034-0.085,1.549c-0.041,0.617-0.089,1.232-0.146,1.846
	c-0.043,0.45-0.085,0.9-0.137,1.349c-0.09,0.784-0.192,1.568-0.311,2.349c-0.065,0.432-0.139,0.861-0.212,1.292
	c-0.11,0.64-0.228,1.28-0.356,1.917c-0.088,0.435-0.178,0.868-0.274,1.3c-0.169,0.761-0.35,1.52-0.546,2.276
	c-0.069,0.27-0.138,0.542-0.212,0.812c-0.255,0.938-0.531,1.872-0.828,2.803c-3.899,12.23-11.281,23.274-21.56,31.692
	c-1.997,1.636-3.085,4.133-2.921,6.71c0.313,4.927,0.655,12.92,0.508,23.016c-0.066,4.426,3.47,8.067,7.896,8.131
	c0.041,0,0.08,0.001,0.12,0.001c4.371,0,7.947-3.511,8.011-7.897c0.121-8.222-0.068-15.139-0.314-20.264
	c9.973-9.018,17.471-20.141,22.095-32.371c19.604-6.857,53.317-19.6,53.677-19.736c2.895-1.094,4.9-3.758,5.152-6.843
	C512.226,102.224,510.679,99.27,508.002,97.72z M316.47,403.521l-27.83,19.813v-33.336c9.734-1.608,19.014-3.894,27.83-6.863
	V403.521z M298.459,111.855c0.137,0.265,0.28,0.527,0.416,0.792c0.268,0.526,0.52,1.055,0.784,1.581
	c1.428,2.852,2.799,5.725,4.108,8.615c0.199,0.437,0.406,0.873,0.601,1.311c0.028,0.067,0.055,0.135,0.084,0.201
	c0.519,1.167,1.024,2.348,1.526,3.526c0.295,0.695,0.59,1.388,0.878,2.083c0.444,1.07,0.882,2.136,1.301,3.19
	c0.689,1.734,1.366,3.47,2.008,5.207l0.337,0.924c22.165,60.743,16.17,123.454-17.642,168.769c-0.056,0.075-0.113,0.149-0.17,0.223
	c-1.221,1.63-2.475,3.24-3.768,4.824c-0.887,1.086-1.79,2.154-2.703,3.212c-0.274,0.317-0.554,0.628-0.829,0.944
	c-0.66,0.751-1.325,1.497-1.999,2.234c-0.307,0.337-0.617,0.67-0.926,1.003c-0.69,0.743-1.389,1.477-2.093,2.203
	c-0.271,0.28-0.541,0.562-0.814,0.84c-0.931,0.946-1.87,1.88-2.824,2.8c-0.043,0.041-0.083,0.082-0.126,0.123
	c-1.053,1.012-2.12,2.007-3.2,2.987c-0.126,0.114-0.254,0.225-0.38,0.339c-0.92,0.829-1.851,1.647-2.791,2.452
	c-0.25,0.215-0.502,0.426-0.753,0.639c-0.846,0.716-1.7,1.422-2.562,2.12c-0.263,0.213-0.526,0.426-0.791,0.638
	c-0.935,0.747-1.881,1.481-2.834,2.206c-0.172,0.131-0.342,0.265-0.515,0.395c-1.146,0.863-2.304,1.711-3.474,2.542
	c-0.122,0.087-0.246,0.169-0.368,0.255c-0.992,0.7-1.992,1.386-3.001,2.063c-0.43,0.287-0.862,0.57-1.295,0.853
	c-0.697,0.457-1.397,0.909-2.101,1.355c-0.547,0.346-1.095,0.689-1.648,1.029c-0.566,0.349-1.138,0.691-1.71,1.033
	c-0.658,0.393-1.315,0.789-1.981,1.172c-0.306,0.177-0.617,0.347-0.923,0.523c-11.254,6.399-23.463,11.492-36.489,15.21
	c-0.012,0.003-0.024,0.004-0.035,0.007c-3.005,0.86-6.04,1.637-9.097,2.346c-0.868,0.2-1.74,0.391-2.615,0.579
	c-0.401,0.087-0.801,0.172-1.202,0.256c-3.726,0.775-7.508,1.447-11.348,2.007c-0.212,0.031-0.418,0.073-0.623,0.12
	c-0.197,0.028-0.395,0.052-0.592,0.08c-1.29,0.181-2.583,0.347-3.88,0.502c-0.926,0.109-1.857,0.209-2.789,0.307
	c-0.583,0.062-1.167,0.123-1.751,0.18c-1.39,0.131-2.785,0.251-4.186,0.355c-0.142,0.011-0.284,0.022-0.426,0.032
	c-4.947,0.355-9.967,0.535-15.053,0.534c-3.378,0-6.765-0.088-10.159-0.246c-0.782-0.037-1.563-0.074-2.348-0.12
	c-0.621-0.035-1.242-0.076-1.864-0.116c-5.118-0.344-10.279-0.86-15.479-1.565c-0.035-0.005-0.071-0.004-0.106-0.009
	c-10.859-1.477-21.745-3.742-32.603-6.799L298.459,111.855z M457.835,113.204c0.708-5.445,0.868-10.962,0.48-16.515
	c-0.004-0.058-0.005-0.115-0.01-0.173c-0.059-0.823-0.129-1.647-0.213-2.472c-0.136-1.342-0.309-2.677-0.508-4.004
	c-0.06-0.401-0.135-0.796-0.201-1.195c-0.115-0.705-0.221-1.413-0.355-2.114l28.278,16.369
	C477.101,106.159,466.923,109.925,457.835,113.204z"/>
<circle cx="401.119" cy="80.378" r="10.233"/>
<g>
</g>
<g>
</g>
<g>
</g>
<g>
</g>
<g>
</g>
<g>
</g>
<g>
</g>
<g>
</g>
<g>
</g>
<g>
</g>
<g>
</g>
<g>
</g>
<g>
</g>
<g>
</g>
<g>
</g>
</svg>

<svg width="512" height="512" viewBox="0 0 512 512" fill="none" xmlns="http://www.w3.org/2000/svg">
<g clip-path="url(#clip0_9_2)">
<path d="M147.812 358.682L10.363 475.36C6.51199 478.629 8.824 484.925 13.875 484.925C97.583 484.925 174.737 439.624 215.527 366.527L224.211 350.963L147.812 358.682Z" fill="#2B130F"/>
<path d="M196.359 353.776C158.943 417.746 93.305 459.546 20.302 466.922L10.363 475.359C6.51199 478.628 8.824 484.924 13.875 484.924C97.583 484.924 174.737 439.623 215.527 366.526L224.211 350.962L196.359 353.776Z" fill="#8C2514"/>
<path d="M504.402 104.656L443.23 69.242C447.066 77.061 449.607 85.678 450.534 94.85C451.615 105.556 450.395 115.962 447.28 125.581C466.066 119.153 504.402 104.656 504.402 104.656Z" fill="#ED2601"/>
<path d="M450.533 94.851C446.35 53.449 409.396 23.278 367.995 27.461C330.714 31.228 302.553 61.57 300.367 97.801C304.758 105.453 308.699 113.233 312.196 121.098L312.186 121.095C313.621 124.318 314.98 127.553 316.264 130.801C316.294 130.878 316.326 130.954 316.356 131.031C316.948 132.534 317.523 134.041 318.084 135.549C318.237 135.959 318.385 136.372 318.534 136.783C318.57 136.883 318.607 136.984 318.643 137.084C319.378 139.107 320.087 141.132 320.763 143.161C320.809 143.3 320.854 143.439 320.9 143.577C321.692 145.973 322.447 148.372 323.157 150.774C323.173 150.827 323.188 150.882 323.204 150.936C323.952 153.474 324.656 156.014 325.312 158.557C325.327 158.571 325.343 158.583 325.359 158.597C334.691 194.406 335.385 232.276 323.373 267.32C317.309 285.615 308.097 302.794 295.543 318.17C268.4 351.414 229.928 371.14 187.063 377.399C430.019 428.677 425.743 200.154 423.242 160.766C442.135 145.297 453.172 120.963 450.533 94.851Z" fill="#CAA867"/>
<path d="M450.533 94.851C446.35 53.449 409.396 23.278 367.995 27.461C366.266 27.635 364.565 27.886 362.878 28.173C395.415 33.754 421.586 60.405 425.067 94.851C427.705 120.964 416.669 145.297 397.777 160.765C399.973 195.359 403.53 375.848 239.751 384.523C429.362 394.017 425.549 197.065 423.245 160.765C442.135 145.297 453.172 120.963 450.533 94.851Z" fill="#7A674B"/>
<path d="M80.304 366.883C161.838 393.971 246.888 377.761 295.545 318.168C344.202 258.575 343.071 172.002 300.221 97.533L80.304 366.883Z" fill="#857A57"/>
<path d="M300.22 97.535L294.361 104.712C323.672 172.608 319.603 246.453 276.553 299.18C233.503 351.907 161.965 370.664 89.578 355.527L80.304 366.886C161.838 393.974 246.888 377.764 295.544 318.171C344.201 258.575 343.069 172.002 300.22 97.535Z" fill="#362C0E"/>
<path d="M401.536 90.611C407.188 90.611 411.769 86.0295 411.769 80.378C411.769 74.7265 407.188 70.145 401.536 70.145C395.884 70.145 391.303 74.7265 391.303 80.378C391.303 86.0295 395.884 90.611 401.536 90.611Z" fill="#333333"/>
<path d="M401.483 90.611C407.135 90.611 411.716 86.0295 411.716 80.378C411.716 74.7265 407.135 70.145 401.483 70.145C395.831 70.145 391.25 74.7265 391.25 80.378C391.25 86.0295 395.831 90.611 401.483 90.611Z" fill="#333333"/>
<path d="M508.002 97.72L448.827 63.463C433.408 34.4 401.467 15.979 366.775 19.487C346.965 21.488 328.506 30.525 314.799 44.933C301.977 58.41 294.034 75.787 292.214 94.161L73.68 361.815C72.013 363.857 71.456 366.587 72.191 369.119C72.926 371.65 74.859 373.658 77.361 374.49C87.203 377.76 97.09 380.423 106.984 382.475L86.276 400.055C82.901 402.92 82.488 407.977 85.353 411.351C88.218 414.726 93.275 415.14 96.649 412.274L127.751 385.872C131.165 386.283 134.576 386.62 137.983 386.885C139.077 386.972 140.169 387.054 141.26 387.125C141.48 387.139 141.7 387.151 141.92 387.163C155.832 388.031 169.462 387.657 182.736 386.036C183.716 385.918 184.689 385.788 185.664 385.657C185.949 385.619 186.236 385.581 186.521 385.542C188.521 385.957 190.511 386.354 192.49 386.732C152.205 440.935 88.596 474.568 20.646 476.792L76.651 429.25C80.026 426.385 80.439 421.328 77.574 417.954C74.71 414.579 69.654 414.167 66.278 417.031L4.76199 469.25C0.416994 472.939 -1.12301 478.779 0.841994 484.131C2.80699 489.481 7.75999 492.939 13.461 492.939C54.852 492.939 95.741 482.111 131.704 461.625C162.919 443.845 189.761 419.16 210.109 389.686C224.851 391.787 238.933 392.851 252.32 392.851C259.27 392.851 266.032 392.562 272.611 391.996V434.515L244.206 454.738C240.6 457.305 239.759 462.309 242.325 465.915C244.891 469.519 249.897 470.363 253.501 467.796L278.279 450.156L289.349 468.218C290.861 470.685 293.494 472.046 296.189 472.046C297.618 472.046 299.062 471.664 300.369 470.864C304.143 468.551 305.327 463.617 303.015 459.843L298.463 452.416L317.576 458.197L329.97 476.176C331.525 478.431 334.028 479.642 336.576 479.642C338.145 479.642 339.728 479.183 341.117 478.225C344.761 475.713 345.68 470.723 343.167 467.078L329.181 446.789C328.15 445.294 326.642 444.192 324.902 443.667L298.802 435.772L322.135 419.16L333.205 437.222C334.717 439.689 337.35 441.05 340.045 441.05C341.474 441.05 342.918 440.669 344.225 439.868C347.999 437.555 349.183 432.621 346.871 428.847L342.319 421.42L361.432 427.201L373.826 445.18C375.381 447.435 377.884 448.646 380.432 448.646C382.001 448.646 383.584 448.186 384.973 447.229C388.617 444.717 389.536 439.727 387.023 436.082L373.037 415.793C372.006 414.298 370.498 413.196 368.758 412.671L332.493 401.702V376.752C341.514 372.564 349.974 367.561 357.859 361.743C409.525 323.624 425.575 258.869 429.944 211.258C430.348 206.85 427.103 202.95 422.696 202.545C418.277 202.138 414.388 205.386 413.983 209.794C409.915 254.137 395.225 314.256 348.344 348.846C317.774 371.401 277.076 380.345 227.012 375.577C236.195 372.227 244.984 368.199 253.325 363.511C253.392 363.474 253.459 363.435 253.525 363.397C255.007 362.561 256.475 361.704 257.93 360.827C258.23 360.646 258.528 360.465 258.827 360.282C260.053 359.532 261.268 358.767 262.472 357.988C262.872 357.729 263.272 357.473 263.669 357.212C264.788 356.475 265.894 355.721 266.993 354.959C267.413 354.668 267.838 354.382 268.255 354.087C269.427 353.258 270.586 352.409 271.736 351.551C272.042 351.323 272.355 351.103 272.659 350.872C274.06 349.812 275.443 348.73 276.809 347.627C277.322 347.212 277.823 346.783 278.332 346.363C279.192 345.651 280.052 344.94 280.899 344.211C281.496 343.696 282.084 343.169 282.674 342.647C283.42 341.986 284.165 341.322 284.899 340.648C285.498 340.097 286.092 339.539 286.684 338.979C287.402 338.299 288.116 337.613 288.823 336.92C289.395 336.359 289.964 335.796 290.528 335.226C291.255 334.492 291.973 333.748 292.688 333C293.209 332.454 293.732 331.911 294.246 331.358C295.034 330.511 295.806 329.648 296.578 328.783C297.001 328.309 297.431 327.842 297.849 327.361C298.996 326.046 300.125 324.712 301.233 323.357C301.266 323.317 301.3 323.279 301.332 323.239C301.461 323.081 301.585 322.919 301.713 322.76C302.368 321.951 303.019 321.14 303.658 320.322C303.911 319.998 304.155 319.668 304.405 319.343C304.918 318.676 305.431 318.009 305.932 317.335C306.178 317.004 306.417 316.668 306.661 316.336C307.159 315.656 307.658 314.976 308.145 314.29C308.365 313.98 308.579 313.665 308.797 313.353C309.302 312.631 309.806 311.907 310.299 311.177C310.484 310.902 310.664 310.625 310.848 310.349C311.366 309.572 311.881 308.792 312.387 308.007C312.54 307.77 312.688 307.529 312.84 307.291C313.371 306.455 313.898 305.617 314.413 304.771C314.529 304.58 314.644 304.387 314.759 304.196C315.306 303.292 315.846 302.385 316.376 301.47C316.456 301.331 316.536 301.191 316.616 301.051C317.179 300.072 317.734 299.088 318.277 298.099C318.32 298.021 318.362 297.942 318.405 297.864C318.986 296.801 319.556 295.731 320.115 294.655C320.119 294.646 320.125 294.637 320.129 294.628C324.593 286.022 328.32 277.011 331.285 267.655C341.831 235.38 342.76 198.983 334.011 161.908C328.799 139.541 320.116 117.339 308.171 96.057C308.155 96.029 308.141 96 308.125 95.973C311.134 63.978 336.13 38.693 368.38 35.434C398.355 32.411 425.801 49.634 437.074 75.98C437.126 76.102 437.173 76.225 437.225 76.348C437.581 77.193 437.921 78.048 438.243 78.911C438.332 79.15 438.415 79.391 438.502 79.631C438.773 80.385 439.034 81.146 439.279 81.913C439.375 82.214 439.467 82.517 439.559 82.819C439.777 83.537 439.983 84.26 440.179 84.988C440.269 85.324 440.357 85.66 440.443 85.997C440.621 86.709 440.785 87.427 440.941 88.148C441.016 88.496 441.096 88.844 441.165 89.193C441.316 89.946 441.446 90.707 441.572 91.471C441.623 91.785 441.683 92.096 441.73 92.411C441.89 93.484 442.031 94.564 442.141 95.655C442.141 95.656 442.141 95.658 442.141 95.659C442.245 96.687 442.316 97.714 442.374 98.74C442.387 98.978 442.402 99.217 442.412 99.455C442.455 100.395 442.476 101.335 442.48 102.273C442.481 102.604 442.476 102.936 442.471 103.266C442.464 103.972 442.443 104.677 442.413 105.38C442.391 105.897 442.362 106.414 442.328 106.929C442.287 107.546 442.239 108.161 442.182 108.775C442.139 109.225 442.097 109.675 442.045 110.124C441.955 110.908 441.853 111.692 441.734 112.473C441.669 112.905 441.595 113.334 441.522 113.765C441.412 114.405 441.294 115.045 441.166 115.682C441.078 116.117 440.988 116.55 440.892 116.982C440.723 117.743 440.542 118.502 440.346 119.258C440.277 119.528 440.208 119.8 440.134 120.07C439.879 121.008 439.603 121.942 439.306 122.873C435.407 135.103 428.025 146.147 417.746 154.565C415.749 156.201 414.661 158.698 414.825 161.275C415.138 166.202 415.48 174.195 415.333 184.291C415.267 188.717 418.803 192.358 423.229 192.422C423.27 192.422 423.309 192.423 423.349 192.423C427.72 192.423 431.296 188.912 431.36 184.526C431.481 176.304 431.292 169.387 431.046 164.262C441.019 155.244 448.517 144.121 453.141 131.891C472.745 125.034 506.458 112.291 506.818 112.155C509.713 111.061 511.718 108.397 511.97 105.312C512.226 102.224 510.679 99.27 508.002 97.72ZM316.47 403.521L288.64 423.334V389.998C298.374 388.39 307.654 386.104 316.47 383.135V403.521ZM298.459 111.855C298.596 112.12 298.739 112.382 298.875 112.647C299.143 113.173 299.395 113.702 299.659 114.228C301.087 117.08 302.458 119.953 303.767 122.843C303.966 123.28 304.173 123.716 304.368 124.154C304.396 124.221 304.423 124.289 304.452 124.355C304.971 125.522 305.476 126.703 305.978 127.881C306.273 128.576 306.568 129.269 306.856 129.964C307.3 131.034 307.738 132.1 308.157 133.154C308.846 134.888 309.523 136.624 310.165 138.361L310.502 139.285C332.667 200.028 326.672 262.739 292.86 308.054C292.804 308.129 292.747 308.203 292.69 308.277C291.469 309.907 290.215 311.517 288.922 313.101C288.035 314.187 287.132 315.255 286.219 316.313C285.945 316.63 285.665 316.941 285.39 317.257C284.73 318.008 284.065 318.754 283.391 319.491C283.084 319.828 282.774 320.161 282.465 320.494C281.775 321.237 281.076 321.971 280.372 322.697C280.101 322.977 279.831 323.259 279.558 323.537C278.627 324.483 277.688 325.417 276.734 326.337C276.691 326.378 276.651 326.419 276.608 326.46C275.555 327.472 274.488 328.467 273.408 329.447C273.282 329.561 273.154 329.672 273.028 329.786C272.108 330.615 271.177 331.433 270.237 332.238C269.987 332.453 269.735 332.664 269.484 332.877C268.638 333.593 267.784 334.299 266.922 334.997C266.659 335.21 266.396 335.423 266.131 335.635C265.196 336.382 264.25 337.116 263.297 337.841C263.125 337.972 262.955 338.106 262.782 338.236C261.636 339.099 260.478 339.947 259.308 340.778C259.186 340.865 259.062 340.947 258.94 341.033C257.948 341.733 256.948 342.419 255.939 343.096C255.509 343.383 255.077 343.666 254.644 343.949C253.947 344.406 253.247 344.858 252.543 345.304C251.996 345.65 251.448 345.993 250.895 346.333C250.329 346.682 249.757 347.024 249.185 347.366C248.527 347.759 247.87 348.155 247.204 348.538C246.898 348.715 246.587 348.885 246.281 349.061C235.027 355.46 222.818 360.553 209.792 364.271C209.78 364.274 209.768 364.275 209.757 364.278C206.752 365.138 203.717 365.915 200.66 366.624C199.792 366.824 198.92 367.015 198.045 367.203C197.644 367.29 197.244 367.375 196.843 367.459C193.117 368.234 189.335 368.906 185.495 369.466C185.283 369.497 185.077 369.539 184.872 369.586C184.675 369.614 184.477 369.638 184.28 369.666C182.99 369.847 181.697 370.013 180.4 370.168C179.474 370.277 178.543 370.377 177.611 370.475C177.028 370.537 176.444 370.598 175.86 370.655C174.47 370.786 173.075 370.906 171.674 371.01C171.532 371.021 171.39 371.032 171.248 371.042C166.301 371.397 161.281 371.577 156.195 371.576C152.817 371.576 149.43 371.488 146.036 371.33C145.254 371.293 144.473 371.256 143.688 371.21C143.067 371.175 142.446 371.134 141.824 371.094C136.706 370.75 131.545 370.234 126.345 369.529C126.31 369.524 126.274 369.525 126.239 369.52C115.38 368.043 104.494 365.778 93.636 362.721L298.459 111.855ZM457.835 113.204C458.543 107.759 458.703 102.242 458.315 96.689C458.311 96.631 458.31 96.574 458.305 96.516C458.246 95.693 458.176 94.869 458.092 94.044C457.956 92.702 457.783 91.367 457.584 90.04C457.524 89.639 457.449 89.244 457.383 88.845C457.268 88.14 457.162 87.432 457.028 86.731L485.306 103.1C477.101 106.159 466.923 109.925 457.835 113.204Z" fill="black"/>
<path d="M401.119 90.611C406.771 90.611 411.352 86.0295 411.352 80.378C411.352 74.7265 406.771 70.145 401.119 70.145C395.467 70.145 390.886 74.7265 390.886 80.378C390.886 86.0295 395.467 90.611 401.119 90.611Z" fill="black"/>
</g>
<defs>
<clipPath id="clip0_9_2">
<rect width="511.999" height="511.999" fill="white"/>
</clipPath>
</defs>
</svg>
